**kern	**kern	**kern	**kern
*staff3	*staff4	*staff1	*staff2
*clefF4	*clefF4	*clefG2	*clefG2
*k[f#c#]	*k[f#c#]	*k[f#c#]	*k[f#c#]
*M2/4	*M2/4	*M2/4	*M2/4
*D:	*D:	*D:	*D:
=-	=-	=-	=-
2r	8r	(16c#LL	2r
.	.	16e	.
.	4AAA 4AA	16A	.
.	.	16c#JJ	.
.	.	16eLL	.
.	.	16c#	.
.	[8GG [8G	16b	.
.	.	16aJJ)	.
=301	=301	=301	=301
2r	8GG] 8G]	(16ddLL	2r
.	.	16ff#	.
.	4FF# 4F#	16a	.
.	.	16ddJJ	.
.	.	16ff#LL	.
.	.	16dd	.
.	[8AAA [8AA	16bb	.
.	.	16aaJJ)	.
=302	=302	=302	=302
2r	8AAA] 8AA]	(16gLL	2r
.	.	16e	.
.	4CC# 4C#	16c#	.
.	.	16AJJ	.
.	.	16gLL	.
.	.	16e	.
.	[8AAA [8AA	16b	.
.	.	16aJJ)	.
=303	=303	=303	=303
2r	8AAA] 8AA]	(16dddLL	2r
.	.	16aa	.
.	4DD 4D	16ff#	.
.	.	16ddJJ	.
.	.	16aaLL	.
.	.	16ff#	.
.	[8AAA [8AA	16eee	.
.	.	16dddJJ)	.
=304	=304	=304	=304
2r	8AAA] 8AA]	24ff#LL	2r
.	.	24ee	.
.	.	24ggJ	.
.	4EE 4E	8cc#'J	.
.	.	24f#LL	.
.	.	24e	.
.	.	24gJ	.
.	[8GG [8G	8c#'J	.
=305	=305	=305	=305
2r	8GG] 8G]	24bbLL	2r
.	.	24aa	.
.	.	24dddJ	.
.	4FF# 4F#	8ff#'J	.
.	.	24gLL	.
.	.	24f#	.
.	.	24bJ	.
.	[8AA [8A	8d#'J	.
=306	=306	=306	=306
2r	8AA] 8A]	24ff#LL	2r
.	.	24ee	.
.	.	24ggJ	.
.	4GG 4G	8b'J	.
.	.	24f#LL	.
.	.	24e	.
.	.	24gJ	.
.	[8AA [8A	8c#'J	.
=307	=307	=307	=307
2r	8AAL] 8A]	24dLL	2r
.	.	24f#	.
.	.	24aJ	.
.	8DJ	24ddL	.
.	.	24ff#	.
.	.	24aaJJ	.
.	8DD	8ddd	.
.	8r	8r	.
=308:|!	=308:|!	=308:|!	=308:|!
*-	*-	*-	*-
